X:1
T:Christe Sanctorum, 11.11.11.5
T:Christe Sanctorum, 11.11.11.5
T:French church melody (Pari
T:Public Domain Courtesy of the Cyber Hymnal™
C:French church melody (Pari
Z:Public Domain
Z:Courtesy of the Cyber Hymnal™
%%score ( 1 2 ) ( 3 4 )
L:1/8
Q:1/4=112
M:4/4
K:Eb
V:1 treble 
V:2 treble 
V:3 bass 
V:4 bass 
V:1
 [EB]4 [EG]2 [EA]2 | [EG]2 [DF]2 [B,E]4 | [EG]3 [EA] [DB]2 [EB]2 | [Ec]4 [EB]4 | %4
 [FB]4 [Ac]2 [Ad]2 | [Ge]4 [FB]4 | [Ee]3 [Fd] [Fc]2 [Fd]2 | c4 [FB]4 | [Ee]4 B2 [Ac]2 | %9
 ([FB]2 [EA]2) [EG]4 | [EA]3 [EG] [CA]2 [DB]2 | (A2 G2) [DF]4 | [EB]4 E2 [FA]2 | ([EG]4 [DF]4) x2 | %14
 [B,E]8 |] %15
V:2
 x8 | x8 | x8 | x8 | x8 | x8 | x8 | (B2 =A2) x4 | x8 | x8 | x8 | E4 x4 | x4 E2 x2 | x10 | x8 |] %15
V:3
 [E,G,]4 [E,B,]2 [A,,C]2 | B,4 [E,G,]4 | [E,B,]3 [C,A,] [B,,F,]2 [E,G,]2 | A,4 [E,G,]4 | %4
 [B,D]4 [A,E]2 [F,F]2 | [E,B,]4 [D,B,]4 | [C,C]3 [D,B,] [F,=A,]2 B,2 | ([E,G]2 [F,F]2) [B,,D]4 | %8
 [G,,B,]4 [G,,E]2 [A,,E]2 | ([B,,D]2 [C,C]2) [E,B,]4 | [A,C]3 [E,B,] [F,A,]2 [B,,F,]2 | %11
 ([C,A,]2 [E,B,]2) [B,,B,]4 | [G,,B,]4 [C,G,]2 [F,,C]2 | B,6 z2 x2 | [E,G,]8 |] %15
V:4
 x8 | (E,2 B,,2) x4 | x8 | A,4 x4 | x8 | x8 | x6 B,2 | x8 | x8 | x8 | x8 | x8 | x8 | %13
 G,,2 A,,2 B,,4 A,2 | x8 |] %15

